X:1
T:The last spring Music by edvard grieg
C:Grieg
%%score { 1 | ( 2 3 4 ) }
L:1/4
Q:1/4=90
M:4/4
I:linebreak $
K:Emin
V:1 treble 
L:1/8
V:2 bass 
L:1/8
V:3 bass 
V:4 bass 
V:1
"^Slow""G" (!2!B2 GB"A#dim" e2 d^c |"Am" d2"F" !1!AB"D7" c3) (!5!d |"G" !3!B6) (GA |$ %3
"Bm" B2"Dm" d4 ^c2) |"Am" (!2!=c2 Ac"F7" =f2 e^d |"Asus4" e2 Bc"E" d3) (!5!e |"Am" !3!c6) (BA |$ %7
"C" !3!B2 G6) |"Em" (!1!B2 ^c^d e2 dc |"B" e^dd^c B3) (!2!d |"Em""Bsus4" e6"B" f^d |$ %11
"^Lb""F#m" ^c2 F6) |"E" (!1!B2 ^c^d"C#m" e2 dc |"G#m" e^dd^c!<(! B3)"G+" (!1!B!<)! | %14
"B" f6)!>(! ^d=d!>)! |$"B" ^d2 B6 |"G" ([G=d]2 BA"Cmaj7" G2 AB |"Am" cee^d"B7" B3) (!3!G | %18
"Em""F#7" E6)"Em" (!1!GB |$!<(!"B" ^d2 f6)!<)! |"_St""G" (g2 gf"Bm" d2 ef | %21
"C" fege"Em" [GB]3) (B |$!>(!"G" d6)!>)! (!1!GA |"G" B2"C" d4) (!3!BA |"G" B2"G#4" G4) (BA | %25
"G" BA"G#4" G4) (BA) |$[I:staff +1] D,6 _D,2 |"Cmaj7"[I:staff -1] (GBAG"Cm" BAGB) | %28
"D/D" !fermata!d8 |] %29
V:2
 !1!!5![G,D]4 !2!!3![^A,^C]4 | !1!!4![=A,C]4 !1!!5![D,C]4 | G,4 E,4 |$ [B,,F,]4 [D,=F,]4 | %4
 [A,,E,]4 [_E,A,]3 z | [A,D]4 [^G,E]4 | !1!A,2 =G,2 F,2 D,2 |$ [E,C]4 [G,B,]4 | %8
[K:treble] !1!!3![EG]8 | [B,F]8 | [EG]4 [B,F]4 |$ [F,^C]4 [B,^D]4 |[K:bass] [E,^G,]4 [^C,G,]4 | %13
 !1!!2![^G,B,]6 !4!=G,2 | [B,^F]4 [^A,E]4 |$ ^D4 =D4 | D4 [CE]4 | [CE]4 [B,^D]4 | %18
 !1!!3![G,B,]4 [F,^A,]2 [E,G,]2 |$ [B,,F,]4 !tenuto![D,F,C]2 !tenuto![F,CD]2 | [G,B,D]4 [B,DF]4 | %21
 [CE]4 E3 z |$ [D,B,]4 [E,C]4 | [D,B,]4 [E,C]4 | B,4 ^C4 | D4 ^C4 |$ %26
"G7"[I:staff -1] (BAGB AG"G7b5"BA) |[I:staff +1] [C,B,]8 |[I:staff -1] z4"G" !fermata![GB]4 |] %29
V:3
 x4 | x4 | G,4 |$ x4 | x4 | x4 | x4 |$ x4 |[K:treble] x4 | x4 | x4 |$ x4 |[K:bass] x4 | x4 | F,4 |$ %15
 x4 | B,4 | A,4 | x4 |$ x4 | x4 | x4 |$ x4 | x4 | x4 | G,4 |$ [=F,B,]4 | E,4 | %28
 z2 !fermata![G,,D,]2 |] %29
V:4
 x4 | x4 | x4 |$ x4 | x4 | x4 | x4 |$ x4 |[K:treble] x4 | x4 | x4 |$ x4 |[K:bass] x4 | x4 | x4 |$ %15
 x4 | x4 | x4 | x4 |$ x4 | x4 | x4 |$ x4 | x4 | x4 | x4 |$ x4 | x2 _E,2 | x4 |] %29

